icon-themes/breeze_svg/cmd/sc_dbdistinctvalues.svg

<svg viewBox="0 0 16 16" xmlns="http://www.w3.org/2000/svg">/&gt;<path d="m3 2-1 1v1 .3125l4 5.65625v.03125 2l1 .5v-1.5-1-.375l-4-5.625v-1h4.25 1.75 4v1l-2.125 3h1.21875l1.90625-2.6875v-1.3125l-1-1h-4-1.75zm9.5625 6.46875-.78125 1.28125h-2.78125v1h2.1875l-.59375 1h-1.59375v1h1l-.4375.71875.875.53125.75-1.25h2.8125v-1h-2.21875l.59375-1h1.625v-1h-1l.4375-.75z" fill="#4d4d4d"/></svg>

<svg xmlns="http://www.w3.org/2000/svg" viewBox="0 0 16 16">
     />
 <path 
     style="fill:#4d4d4d" 
     d="M 3 2 L 2 3 L 2 4 L 2 4.3125 L 6 9.96875 L 6 10 L 6 12 L 7 12.5 L 7 11 L 7 10 L 7 9.625 L 3 4 L 3 3 L 7.25 3 L 9 3 L 13 3 L 13 4 L 10.875 7 L 12.09375 7 L 14 4.3125 L 14 3 L 13 2 L 9 2 L 7.25 2 L 3 2 z M 12.5625 8.46875 L 11.78125 9.75 L 9 9.75 L 9 10.75 L 11.1875 10.75 L 10.59375 11.75 L 9 11.75 L 9 12.75 L 10 12.75 L 9.5625 13.46875 L 10.4375 14 L 11.1875 12.75 L 14 12.75 L 14 11.75 L 11.78125 11.75 L 12.375 10.75 L 14 10.75 L 14 9.75 L 13 9.75 L 13.4375 9 L 12.5625 8.46875 z "
     />
 </svg>
